icons/solid/analytics.svg

<svg width="24" height="24" viewBox="0 0 24 24" fill="none" xmlns="http://www.w3.org/2000/svg">
<path fill-rule="evenodd" clip-rule="evenodd" d="M3 6C3 4.34315 4.34315 3 6 3H18C19.6569 3 21 4.34315 21 6V18C21 19.6569 19.6569 21 18 21H6C4.34315 21 3 19.6569 3 18V6ZM13 8C13 7.44772 12.5523 7 12 7C11.4477 7 11 7.44772 11 8V16C11 16.5523 11.4477 17 12 17C12.5523 17 13 16.5523 13 16V8ZM9 11C9 10.4477 8.55228 10 8 10C7.44772 10 7 10.4477 7 11V16C7 16.5523 7.44772 17 8 17C8.55228 17 9 16.5523 9 16V11ZM17 14C17 13.4477 16.5523 13 16 13C15.4477 13 15 13.4477 15 14V16C15 16.5523 15.4477 17 16 17C16.5523 17 17 16.5523 17 16V14Z" fill="currentColor"/>
</svg>

<svg width="24" height="24" fill="none" xmlns="http://www.w3.org/2000/svg"><path fill-rule="evenodd" clip-rule="evenodd" d="M3 6a3 3 0 013-3h12a3 3 0 013 3v12a3 3 0 01-3 3H6a3 3 0 01-3-3V6zm10 2a1 1 0 10-2 0v8a1 1 0 102 0V8zm-4 3a1 1 0 10-2 0v5a1 1 0 102 0v-5zm8 3a1 1 0 10-2 0v2a1 1 0 102 0v-2z" fill="currentColor"/></svg>
